;FLAVOR:Marlin
;TIME:1126
;Filament used: 0.329533m
;Layer height: 0.1
;MINX:97.2
;MINY:77.301
;MINZ:0.3
;MAXX:132.8
;MAXY:112.7
;MAXZ:1.775
;TARGET_MACHINE.NAME:Anycubic i3 Mega S/Pro
;Generated with Cura_SteamEngine 5.5.0
M82 ;absolute extrusion mode
;Profil Homepage: https://github.com/NilsRo/Cura_Anycubic_MegaS_Profile

;Slicer Information - (Support for OctoPrint Slicer Estimator)
;Slicer info:material_guid;0ff92885-617b-4144-a03c-9989872454bc
;Slicer info:material_id;generic_pla_175
;Slicer info:material_brand;Generic
;Slicer info:material_name;PLA
;Slicer info:filament_cost;[0.0]
;Slicer info:material_bed_temperature;60
;Slicer info:material_bed_temperature_layer_0;60
;Slicer info:material_print_temperature;200
;Slicer info:material_print_temperature_layer_0;205
;Slicer info:material_flow;100
;Slicer info:layer_height;0.1
;Slicer info:machine_nozzle_size;0.4
;Slicer info:wall_thickness;1.2000000000000002
;Slicer info:speed_print;30
;Slicer info:speed_topbottom;15.0
;Slicer info:travel_speed;100.0
;Slicer info:support;0
;Slicer info:retraction_speed;30
;Slicer info:retraction_amount;6
;Slicer info:layer_height;0.1
;Slicer info:infill_pattern;cubic
;Slicer info:infill_sparse_density;100
;Slicer info:cool_fan_enabled;True
;Slicer info:cool_fan_speed;100
;Slicer info:sliced_at;Wed 01-11-2023 19:46:09
G21                                        ; metric values 
G90                                        ; absolute positioning 
M82                                        ; set extruder to absolute mode 
M900 K0                                    ; disable lin. adv. if not set in GCODE
M107                                       ; start with the fan off 
M140 S60   ; Start heating the bed 
G4 S60                                     ; wait 1 minute 
M104 S205 ; start heating the hot end 
M190 S60   ; wait for bed 
M109 S205 ; wait for hotend 
M300 S1000 P500                            ; BEEP heating done 
G28 X0 Y10 Z0                              ; move X/Y to min endstops 
M420 S1                                    ; Enable leveling 
M420 Z2.0                                  ; Set leveling fading height to 2 mm 
G0 Z0.15                                   ; lift nozzle a bit 
G92 E0                                     ; zero the extruded length 
G1 X50 E20 F500                            ; Extrude 20mm of filament in a 5cm line. 
G92 E0                                     ; zero the extruded length again 
G1 E-2 F500                                ; Retract a little 
G1 X50 F500                                ; wipe away from the filament line
G1 X100 F9000                              ; Quickly wipe away from the filament line
G92 E0
G92 E0
G1 F1800 E-6
;LAYER_COUNT:15
;LAYER:0
M106 S76.5
M205 X10 Y10
G1 F480 Z0.375
;MESH:lenovo_keycap.stl(1)
G0 F6000 X110.425 Y78.625 Z0.375
M205 X8 Y8
;TYPE:WALL-INNER
G1 F480 Z0.3
G1 F1800 E0
G1 F900 X109.882 Y78.509 E0.0277
G1 X109.24 Y78.396 E0.06022
G1 X108.647 Y78.316 E0.09008
G1 X107.962 Y78.239 E0.12447
G1 X107.249 Y78.179 E0.16016
G1 X106.429 Y78.132 E0.20114
G1 X105.679 Y78.107 E0.23858
G1 X104.93 Y78.101 E0.27595
G1 X104.242 Y78.109 E0.31028
G1 X103.488 Y78.135 E0.34791
G1 X102.752 Y78.179 E0.3847
G1 X101.975 Y78.245 E0.4236
G1 X101.304 Y78.323 E0.45731
G1 X100.714 Y78.407 E0.48704
G1 X100.115 Y78.51 E0.51736
G1 X99.575 Y78.625 E0.54491
G1 X98.851 Y78.813 E0.58222
G1 X98.374 Y79 E0.60778
G1 X98 Y79.213 E0.62926
G1 X98 Y91.9 E1.26221
G1 X111.995 Y91.9 E1.96043
G1 X111.999 Y79.23 E2.59254
G1 X111.766 Y79.056 E2.60704
G1 X111.148 Y78.813 E2.64017
G1 X110.425 Y78.625 E2.67744
M205 X10 Y10
G0 F6000 X110.517 Y78.236
M205 X8 Y8
G1 F900 X109.959 Y78.117 E2.70591
G1 X109.301 Y78.001 E2.73924
G1 X108.696 Y77.919 E2.7697
G1 X108.001 Y77.841 E2.80459
G1 X107.277 Y77.78 E2.84084
G1 X106.447 Y77.732 E2.88232
G1 X105.688 Y77.707 E2.92021
G1 X104.925 Y77.701 E2.95828
G1 X104.154 Y77.711 E2.99674
G1 X103.47 Y77.736 E3.03089
G1 X102.723 Y77.78 E3.06822
G1 X102.068 Y77.834 E3.10101
G1 X101.306 Y77.919 E3.13927
G1 X100.699 Y78.004 E3.16984
G1 X100.04 Y78.117 E3.2032
G1 X99.536 Y78.223 E3.2289
G1 X98.727 Y78.432 E3.27058
G1 X98.202 Y78.638 E3.29872
G1 X97.734 Y78.904 E3.32558
G1 X97.6 Y79.062 E3.33591
G1 X97.6 Y91.983 E3.98054
G1 X97.785 Y92.23 E3.99594
G1 X97.96 Y92.3 E4.00534
G1 X112.037 Y92.3 E4.70765
G1 X112.216 Y92.229 E4.71725
G1 X112.395 Y91.956 E4.73354
G1 X112.399 Y79.03 E5.37842
G1 X111.963 Y78.704 E5.40558
G1 X111.272 Y78.432 E5.44263
G1 X110.517 Y78.236 E5.48155
M205 X10 Y10
G0 F6000 X110.609 Y77.846
M205 X8 Y8
;TYPE:WALL-OUTER
G1 F900 X110.035 Y77.724 E5.51082
G1 X109.363 Y77.605 E5.54487
G1 X108.745 Y77.522 E5.57598
G1 X108.04 Y77.443 E5.61137
G1 X107.305 Y77.381 E5.64817
G1 X106.465 Y77.332 E5.69015
G1 X105.696 Y77.307 E5.72854
G1 X104.921 Y77.301 E5.7672
G1 X104.14 Y77.311 E5.80617
G1 X103.451 Y77.336 E5.84057
G1 X102.695 Y77.381 E5.87835
G1 X101.886 Y77.45 E5.91886
G1 X101.256 Y77.522 E5.95049
G1 X100.637 Y77.609 E5.98168
G1 X99.964 Y77.724 E6.01574
G1 X99.391 Y77.846 E6.04497
G1 X98.603 Y78.051 E6.08559
G1 X98.029 Y78.276 E6.11635
G1 X97.474 Y78.592 E6.14821
G1 X97.2 Y78.916 E6.16938
G1 X97.2 Y92.057 E6.82499
G1 X97.291 Y92.294 E6.83766
G1 X97.557 Y92.57 E6.85678
G1 X97.884 Y92.7 E6.87434
G1 X112.112 Y92.7 E7.58417
G1 X112.443 Y92.57 E7.60192
G1 X112.704 Y92.3 E7.62065
G1 X112.795 Y92.018 E7.63543
G1 X112.799 Y79.025 E8.28366
G1 X112.682 Y78.741 E8.29898
G1 X112.159 Y78.351 E8.33153
G1 X111.396 Y78.051 E8.37243
G1 X110.609 Y77.846 E8.41301
M205 X10 Y10
G0 F6000 X110.414 Y77.805
G0 X110.335 Y78.995
M205 X8 Y8
;TYPE:SKIN
G1 F900 X111.032 Y79.177 E8.44895
G1 X111.618 Y79.408 E8.48037
G1 X111.615 Y91.52 E9.08464
G1 X98.38 Y91.52 E9.74494
G1 X98.38 Y79.445 E10.34736
G1 X98.972 Y79.176 E10.3798
G1 X99.939 Y78.925 E10.42965
G1 X100.833 Y78.775 E10.47487
G1 X101.363 Y78.7 E10.50158
G1 X101.96 Y78.629 E10.53157
G1 X102.721 Y78.563 E10.56968
G1 X103.509 Y78.515 E10.60907
G1 X104.252 Y78.489 E10.64616
G1 X104.824 Y78.482 E10.6747
G1 X105.67 Y78.487 E10.7169
G1 X106.409 Y78.511 E10.75379
G1 X107.219 Y78.559 E10.79427
G1 X107.922 Y78.617 E10.82947
G1 X109.186 Y78.773 E10.89301
G1 X109.77 Y78.876 E10.92259
G1 X110.335 Y78.995 E10.9514
M205 X10 Y10
G0 F6000 X111.417 Y79.739
M205 X8 Y8
G1 F900 X111.095 Y79.417 E10.97412
M205 X10 Y10
G0 F6000 X110.307 Y79.195
M205 X8 Y8
G1 F900 X111.417 Y80.304 E11.0524
M205 X10 Y10
G0 F6000 X111.417 Y80.87
M205 X8 Y8
G1 F900 X109.595 Y79.048 E11.18095
M205 X10 Y10
G0 F6000 X108.923 Y78.942
M205 X8 Y8
G1 F900 X111.417 Y81.436 E11.35692
M205 X10 Y10
G0 F6000 X111.417 Y82.001
M205 X8 Y8
G1 F900 X108.277 Y78.862 E11.57842
M205 X10 Y10
G0 F6000 X107.644 Y78.795
M205 X8 Y8
G1 F900 X111.416 Y82.566 E11.84452
M205 X10 Y10
G0 F6000 X111.416 Y83.132
M205 X8 Y8
G1 F900 X107.033 Y78.749 E12.15377
M205 X10 Y10
G0 F6000 X106.431 Y78.713
M205 X8 Y8
G1 F900 X111.416 Y83.698 E12.50549
M205 X10 Y10
G0 F6000 X111.416 Y84.263
M205 X8 Y8
G1 F900 X105.846 Y78.693 E12.89848
M205 X10 Y10
G0 F6000 X105.271 Y78.684
M205 X8 Y8
G1 F900 X111.416 Y84.829 E13.33204
M205 X10 Y10
G0 F6000 X111.416 Y85.395
M205 X8 Y8
G1 F900 X104.705 Y78.684 E13.80554
M205 X10 Y10
G0 F6000 X104.149 Y78.693
M205 X8 Y8
G1 F900 X111.415 Y85.96 E14.31823
M205 X10 Y10
G0 F6000 X111.415 Y86.525
M205 X8 Y8
G1 F900 X103.601 Y78.711 E14.86955
M205 X10 Y10
G0 F6000 X103.067 Y78.743
M205 X8 Y8
G1 F900 X111.415 Y87.091 E15.45855
M205 X10 Y10
G0 F6000 X111.415 Y87.657
M205 X8 Y8
G1 F900 X102.538 Y78.78 E16.08487
M205 X10 Y10
G0 F6000 X102.017 Y78.824
M205 X8 Y8
G1 F900 X111.415 Y88.222 E16.74795
M205 X10 Y10
G0 F6000 X111.415 Y88.787
M205 X8 Y8
G1 F900 X101.51 Y78.882 E17.4468
M205 X10 Y10
G0 F6000 X101.013 Y78.951
M205 X8 Y8
G1 F900 X111.415 Y89.353 E18.18072
M205 X10 Y10
G0 F6000 X111.415 Y89.919
M205 X8 Y8
G1 F900 X100.525 Y79.029 E18.94906
M205 X10 Y10
G0 F6000 X100.041 Y79.111
M205 X8 Y8
G1 F900 X111.415 Y90.484 E19.75153
M205 X10 Y10
G0 F6000 X111.415 Y91.05
M205 X8 Y8
G1 F900 X99.587 Y79.222 E20.58606
M205 X10 Y10
G0 F6000 X99.138 Y79.339
M205 X8 Y8
G1 F900 X111.119 Y91.32 E21.43138
M205 X10 Y10
G0 F6000 X110.553 Y91.32
M205 X8 Y8
G1 F900 X98.736 Y79.502 E22.26517
M205 X10 Y10
G0 F6000 X98.579 Y79.911
M205 X8 Y8
G1 F900 X109.987 Y91.32 E23.0701
M205 X10 Y10
G0 F6000 X109.421 Y91.32
M205 X8 Y8
G1 F900 X98.579 Y80.477 E23.8351
M205 X10 Y10
G0 F6000 X98.579 Y81.042
M205 X8 Y8
G1 F900 X108.856 Y91.32 E24.56023
M205 X10 Y10
G0 F6000 X108.29 Y91.32
M205 X8 Y8
G1 F900 X98.579 Y81.608 E25.24543
M205 X10 Y10
G0 F6000 X98.579 Y82.174
M205 X8 Y8
G1 F900 X107.724 Y91.32 E25.89069
M205 X10 Y10
G0 F6000 X107.159 Y91.32
M205 X8 Y8
G1 F900 X98.579 Y82.739 E26.49609
M205 X10 Y10
G0 F6000 X98.579 Y83.305
M205 X8 Y8
G1 F900 X106.593 Y91.32 E27.06156
M205 X10 Y10
G0 F6000 X106.027 Y91.32
M205 X8 Y8
G1 F900 X98.579 Y83.871 E27.58709
M205 X10 Y10
G0 F6000 X98.579 Y84.437
M205 X8 Y8
G1 F900 X105.462 Y91.32 E28.07272
M205 X10 Y10
G0 F6000 X104.896 Y91.32
M205 X8 Y8
G1 F900 X98.579 Y85.002 E28.51846
M205 X10 Y10
G0 F6000 X98.579 Y85.568
M205 X8 Y8
G1 F900 X104.33 Y91.32 E28.92426
M205 X10 Y10
G0 F6000 X103.765 Y91.32
M205 X8 Y8
G1 F900 X98.579 Y86.134 E29.29016
M205 X10 Y10
G0 F6000 X98.579 Y86.699
M205 X8 Y8
G1 F900 X103.199 Y91.32 E29.61616
M205 X10 Y10
G0 F6000 X102.633 Y91.32
M205 X8 Y8
G1 F900 X98.579 Y87.265 E29.90223
M205 X10 Y10
G0 F6000 X98.579 Y87.831
M205 X8 Y8
G1 F900 X102.068 Y91.32 E30.14839
M205 X10 Y10
G0 F6000 X101.502 Y91.32
M205 X8 Y8
G1 F900 X98.579 Y88.396 E30.35466
M205 X10 Y10
G0 F6000 X98.579 Y88.962
M205 X8 Y8
G1 F900 X100.936 Y91.32 E30.521
M205 X10 Y10
G0 F6000 X100.37 Y91.32
M205 X8 Y8
G1 F900 X98.579 Y89.528 E30.6474
M205 X10 Y10
G0 F6000 X98.579 Y90.093
M205 X8 Y8
G1 F900 X99.805 Y91.32 E30.73393
M205 X10 Y10
G0 F6000 X99.239 Y91.32
M205 X8 Y8
G1 F900 X98.579 Y90.659 E30.78054
M205 X10 Y10
G0 F6000 X98.579 Y91.225
M205 X8 Y8
G1 F900 X98.673 Y91.32 E30.7872
M205 X10 Y10
G1 F1800 E24.7872
G1 F480 Z0.375
;MESH:lenovo_keycap.stl
G0 F6000 X110.425 Y98.625 Z0.375
M205 X8 Y8
;TYPE:WALL-INNER
G1 F480 Z0.3
G1 F1800 E30.7872
G1 F900 X109.882 Y98.509 E30.8149
G1 X109.24 Y98.396 E30.84743
G1 X108.647 Y98.316 E30.87728
G1 X107.962 Y98.239 E30.91167
G1 X107.249 Y98.179 E30.94737
G1 X106.429 Y98.132 E30.98834
G1 X105.679 Y98.107 E31.02578
G1 X104.93 Y98.101 E31.06315
G1 X104.242 Y98.109 E31.09748
G1 X103.488 Y98.135 E31.13512
G1 X102.752 Y98.179 E31.1719
G1 X101.975 Y98.245 E31.21081
G1 X101.304 Y98.323 E31.24451
G1 X100.714 Y98.407 E31.27424
G1 X100.115 Y98.51 E31.30456
G1 X99.575 Y98.625 E31.33211
G1 X98.851 Y98.813 E31.36943
G1 X98.374 Y99 E31.39499
G1 X98 Y99.213 E31.41646
G1 X98 Y111.9 E32.04942
G1 X111.995 Y111.9 E32.74763
G1 X111.999 Y99.23 E33.37974
G1 X111.766 Y99.056 E33.39425
G1 X111.148 Y98.813 E33.42738
G1 X110.425 Y98.625 E33.46465
M205 X10 Y10
G0 F6000 X110.517 Y98.236
M205 X8 Y8
G1 F900 X109.959 Y98.117 E33.49311
G1 X109.301 Y98.001 E33.52645
G1 X108.696 Y97.919 E33.55691
G1 X108.001 Y97.841 E33.5918
G1 X107.277 Y97.78 E33.62805
G1 X106.447 Y97.732 E33.66952
G1 X105.688 Y97.707 E33.70741
G1 X104.925 Y97.701 E33.74548
G1 X104.154 Y97.711 E33.78395
G1 X103.47 Y97.736 E33.8181
G1 X102.723 Y97.78 E33.85543
G1 X102.068 Y97.834 E33.88822
G1 X101.306 Y97.919 E33.92647
G1 X100.699 Y98.004 E33.95705
G1 X100.04 Y98.117 E33.9904
G1 X99.536 Y98.223 E34.0161
G1 X98.727 Y98.432 E34.05779
G1 X98.202 Y98.638 E34.08592
G1 X97.734 Y98.904 E34.11278
G1 X97.6 Y99.062 E34.12311
G1 X97.6 Y111.983 E34.76775
G1 X97.785 Y112.23 E34.78314
G1 X97.96 Y112.3 E34.79255
G1 X112.037 Y112.3 E35.49485
G1 X112.216 Y112.229 E35.50446
G1 X112.395 Y111.956 E35.52074
G1 X112.399 Y99.03 E36.16562
G1 X111.963 Y98.704 E36.19278
G1 X111.272 Y98.432 E36.22983
G1 X110.517 Y98.236 E36.26875
M205 X10 Y10
G0 F6000 X110.609 Y97.846
M205 X8 Y8
;TYPE:WALL-OUTER
G1 F900 X110.035 Y97.724 E36.29803
G1 X109.363 Y97.605 E36.33207
G1 X108.745 Y97.522 E36.36318
G1 X108.04 Y97.443 E36.39858
G1 X107.305 Y97.381 E36.43538
G1 X106.465 Y97.332 E36.47735
G1 X105.696 Y97.307 E36.51574
G1 X104.921 Y97.301 E36.55441
G1 X104.14 Y97.311 E36.59337
G1 X103.451 Y97.336 E36.62777
G1 X102.695 Y97.381 E36.66555
G1 X101.886 Y97.45 E36.70606
G1 X101.256 Y97.522 E36.7377
G1 X100.637 Y97.609 E36.76888
G1 X99.964 Y97.724 E36.80295
G1 X99.391 Y97.846 E36.83217
G1 X98.603 Y98.051 E36.8728
G1 X98.029 Y98.276 E36.90355
G1 X97.474 Y98.592 E36.93542
G1 X97.2 Y98.916 E36.95659
G1 X97.2 Y112.057 E37.61219
G1 X97.291 Y112.294 E37.62486
G1 X97.557 Y112.57 E37.64398
G1 X97.884 Y112.7 E37.66154
G1 X112.112 Y112.7 E38.37138
G1 X112.443 Y112.57 E38.38912
G1 X112.704 Y112.3 E38.40785
G1 X112.795 Y112.018 E38.42264
G1 X112.799 Y99.025 E39.07086
G1 X112.682 Y98.741 E39.08618
G1 X112.159 Y98.351 E39.11873
G1 X111.396 Y98.051 E39.15964
G1 X110.609 Y97.846 E39.20021
M205 X10 Y10
G0 F6000 X110.414 Y97.805
G0 X110.335 Y98.995
M205 X8 Y8
;TYPE:SKIN
G1 F900 X111.032 Y99.177 E39.23615
G1 X111.618 Y99.408 E39.26757
G1 X111.615 Y111.52 E39.87184
G1 X98.38 Y111.52 E40.53214
G1 X98.38 Y99.445 E41.13457
G1 X98.972 Y99.176 E41.16701
G1 X99.939 Y98.925 E41.21685
G1 X100.833 Y98.775 E41.26207
G1 X101.363 Y98.7 E41.28878
G1 X101.96 Y98.629 E41.31877
G1 X102.721 Y98.563 E41.35688
G1 X103.509 Y98.515 E41.39627
G1 X104.252 Y98.489 E41.43336
G1 X104.824 Y98.482 E41.4619
G1 X105.67 Y98.487 E41.50411
G1 X106.409 Y98.511 E41.541
G1 X107.219 Y98.559 E41.58148
G1 X107.922 Y98.617 E41.61667
G1 X109.186 Y98.773 E41.68021
G1 X109.77 Y98.876 E41.7098
G1 X110.335 Y98.995 E41.7386
M205 X10 Y10
G1 F1800 E35.7386
G1 F480 Z0.375
G0 F6000 X111.417 Y100.103 Z0.375
M205 X8 Y8
G1 F480 Z0.3
G1 F1800 E41.7386
G1 F900 X110.579 Y99.265 E41.79773
M205 X10 Y10
G0 F6000 X109.843 Y99.095
M205 X8 Y8
G1 F900 X111.417 Y100.669 E41.90878
M205 X10 Y10
G0 F6000 X111.417 Y101.235
M205 X8 Y8
G1 F900 X109.153 Y98.971 E42.06852
M205 X10 Y10
G0 F6000 X108.507 Y98.891
M205 X8 Y8
G1 F900 X111.417 Y101.8 E42.2738
M205 X10 Y10
G0 F6000 X111.417 Y102.366
M205 X8 Y8
G1 F900 X107.863 Y98.812 E42.52455
M205 X10 Y10
G0 F6000 X107.247 Y98.762
M205 X8 Y8
G1 F900 X111.416 Y102.931 E42.8187
M205 X10 Y10
G0 F6000 X111.416 Y103.497
M205 X8 Y8
G1 F900 X106.645 Y98.726 E43.15532
M205 X10 Y10
G0 F6000 X106.054 Y98.7
M205 X8 Y8
G1 F900 X111.416 Y104.062 E43.53364
M205 X10 Y10
G0 F6000 X111.416 Y104.628
M205 X8 Y8
G1 F900 X105.474 Y98.686 E43.95288
M205 X10 Y10
G0 F6000 X104.904 Y98.682
M205 X8 Y8
G1 F900 X111.416 Y105.194 E44.41233
M205 X10 Y10
G0 F6000 X111.415 Y105.759
M205 X8 Y8
G1 F900 X104.344 Y98.688 E44.91123
M205 X10 Y10
G0 F6000 X103.796 Y98.705
M205 X8 Y8
G1 F900 X111.415 Y106.324 E45.44879
M205 X10 Y10
G0 F6000 X111.415 Y106.89
M205 X8 Y8
G1 F900 X103.257 Y98.731 E46.02442
M205 X10 Y10
G0 F6000 X102.724 Y98.765
M205 X8 Y8
G1 F900 X111.415 Y107.456 E46.63762
M205 X10 Y10
G0 F6000 X111.415 Y108.021
M205 X8 Y8
G1 F900 X102.203 Y98.808 E47.28761
M205 X10 Y10
G0 F6000 X101.69 Y98.862
M205 X8 Y8
G1 F900 X111.415 Y108.586 E47.97372
M205 X10 Y10
G0 F6000 X111.415 Y109.152
M205 X8 Y8
G1 F900 X101.189 Y98.926 E48.69522
M205 X10 Y10
G0 F6000 X100.697 Y99
M205 X8 Y8
G1 F900 X111.415 Y109.718 E49.45144
M205 X10 Y10
G0 F6000 X111.415 Y110.283
M205 X8 Y8
G1 F900 X100.213 Y99.081 E50.2418
M205 X10 Y10
G0 F6000 X99.747 Y99.181
M205 X8 Y8
G1 F900 X111.415 Y110.849 E51.06504
M205 X10 Y10
G0 F6000 X111.319 Y111.319
M205 X8 Y8
G1 F900 X99.297 Y99.297 E51.91325
M205 X10 Y10
G0 F6000 X98.874 Y99.439
M205 X8 Y8
G1 F900 X110.753 Y111.319 E52.75142
M205 X10 Y10
G0 F6000 X110.187 Y111.319
M205 X8 Y8
G1 F900 X98.579 Y99.711 E53.57042
M205 X10 Y10
G0 F6000 X98.579 Y100.276
M205 X8 Y8
G1 F900 X109.622 Y111.319 E54.34957
M205 X10 Y10
G0 F6000 X109.056 Y111.319
M205 X8 Y8
G1 F900 X98.579 Y100.842 E55.08878
M205 X10 Y10
G0 F6000 X98.579 Y101.408
M205 X8 Y8
G1 F900 X108.49 Y111.319 E55.78805
M205 X10 Y10
G0 F6000 X107.925 Y111.319
M205 X8 Y8
G1 F900 X98.579 Y101.973 E56.44746
M205 X10 Y10
G0 F6000 X98.579 Y102.539
M205 X8 Y8
G1 F900 X107.359 Y111.319 E57.06694
M205 X10 Y10
G0 F6000 X106.793 Y111.319
M205 X8 Y8
G1 F900 X98.579 Y103.105 E57.64648
M205 X10 Y10
